X:1     %Music
T:The Shuttle Rins
B:Singing Together, Autumn 1984, BBC Publications
F:http://www.folkinfo.org/songs
M:2/4     %Meter
L:1/16     %
K:D
D2 |F3A A3B |A2d2 (ed)(cB) |A3F (E2D2) | (F2E2) z2
w:The wea-ver's wife sits at the fire_ and_ works the pirn_ wheel_ 
 D2 |F3A A3B |A2d2 (ed)(cB) |A3F EF3 | D6 
w:She likes to hear her own good man_ Drive_ on the shut-tle weel. 
A2 |d2A2 A2B2 |d2A2 A2d2 |B3A B2d2 | e6 
w:The shut-tle rins, the shut-tle rins, The shut-tle rins wi' speed;
c2 |d2f2 B2d2 |A3d A2F2 |E3D (E3F) | D6  |]
w:Oh sweet-ly may the shut-tle rin, That wins the bairns_ bread. 